img/community.svg

<svg fill="none" height="300" viewBox="0 0 300 300" width="300" xmlns="http://www.w3.org/2000/svg" xmlns:xlink="http://www.w3.org/1999/xlink"><clipPath id="a"><rect height="300" rx="6" width="300"/></clipPath><g clip-path="url(#a)"><rect fill="#56ccf2" height="300" rx="6" width="300"/><path d="m214.679 107.368 11.215-101.67952-53.362-.00001 10.299 103.95953c1.347 13.594-3.502 27.07-13.199 36.691l-7.765 7.703c-3.125 3.099-2.128 8.375 1.912 10.12 5.313 2.296 8.753 7.529 8.753 13.316v20.107c0 1.108.385 2.182 1.089 3.038l.391.475c1.559 1.894 4.177 2.54 6.439 1.588 1.525-.642 3.287-.32 4.485.822l1.379 1.313c1.992 1.896 5.004 2.233 7.364.822 1.401-.837 3.142-.868 4.571-.081l.692.381c2.306 1.27 5.142 1.069 7.246-.513 1.527-1.148 3.471-1.589 5.343-1.211l.284.057c2.906.587 5.754-1.236 6.438-4.121l4.119-17.364c2.295-9.678 1.631-19.877-1.869-29.188-5.529-14.713-7.547-30.611-5.824-46.235z" fill="#ffb7b7"/><path d="m122.482 89.9164-101.5933-4.1419v55.2815l110.3963-12.389c10.469-1.175 20.96 2.009 29.011 8.803l5.147 4.344c3.332 2.812 8.433 1.612 10.163-2.39 2.401-5.557 7.875-9.155 13.928-9.155h22.996c1.108 0 2.182-.385 3.038-1.089l.475-.391c1.895-1.559 2.541-4.178 1.588-6.439-.642-1.526-.319-3.287.822-4.486l1.313-1.379c1.897-1.991 2.233-5.003.822-7.363-.837-1.402-.868-3.142-.08-4.572l.38-.691c1.27-2.306 1.069-5.1423-.513-7.2464-1.148-1.5266-1.588-3.471-1.21-5.3432l.049-.2465c.588-2.9116-1.27-5.7558-4.172-6.3879l-21.062-4.5873c-9.412-2.05-19.215-1.3376-28.232 2.0513l-4.009 1.507c-12.531 4.7099-25.881 6.8558-39.257 6.3104z" fill="#683838"/><path d="m88.6793 184.223-11.2145 101.68h53.3622l-10.299-103.96c-1.347-13.593 3.501-27.07 13.199-36.69l7.765-7.703c3.124-3.1 2.127-8.375-1.913-10.121-5.312-2.295-8.752-7.528-8.752-13.316v-22.1026c0-1.1083-.385-2.1823-1.09-3.0382l-.39-.4749c-1.56-1.8947-4.178-2.5407-6.439-1.5884-1.526.6423-3.287.3196-4.486-.8218l-1.379-1.3132c-1.992-1.8963-5.003-2.2324-7.364-.8218-1.401.8373-3.141.868-4.571.0806l-.691-.3806c-2.306-1.2699-5.1427-1.0691-7.2468.513-1.5265 1.1479-3.471 1.5884-5.3432 1.2106l-.2604-.0526c-2.9097-.5872-5.7555 1.2574-6.4075 4.1532l-4.4108 19.5887c-2.1421 9.514-1.4554 19.446 1.9755 28.575l.1648.438c5.5299 14.713 7.5138 30.522 5.7907 46.145z" fill="#ff7f80"/><path d="m179.026 200.676 96.787-.635v-47.925l-107.899 10.428c-9.617.93-19.249-1.615-27.152-7.172l-5.385-3.786c-3.516-2.472-8.416-1.089-10.12 2.856-2.503 5.792-8.209 9.543-14.519 9.543h-19.2451c-1.1084 0-2.1824.385-3.0382 1.089l-.475.391c-1.8947 1.559-2.5406 4.177-1.5884 6.439.6423 1.526.3197 3.287-.8218 4.485l-1.3131 1.38c-1.8964 1.991-2.2325 5.003-.8219 7.363.8373 1.402.868 3.142.0806 4.572l-.3806.691c-1.2699 2.306-1.0691 5.142.5131 7.246 1.1478 1.527 1.5883 3.471 1.2105 5.343l-.0571.284c-.5866 2.906 1.2365 5.754 4.1215 6.438l15.6825 3.72c10.718 2.543 21.976 1.474 32.024-3.039l2.084-.935c12.681-5.696 26.411-8.685 40.313-8.776z" fill="#391f1f"/><path d="m223.45 161.443-5.414-14.405c-3.596-9.568-12.748-15.905-22.97-15.905-6.474 0-12.686 2.558-17.282 7.118l-15.917 15.79c-3.125 3.1-2.128 8.375 1.912 10.121 5.313 2.295 8.753 7.529 8.753 13.316v22.768c0 1.109.385 2.183 1.089 3.039l.391.475c1.559 1.894 4.177 2.54 6.439 1.588 1.525-.642 3.287-.32 4.485.822l1.379 1.313c1.992 1.896 5.004 2.232 7.364.822 1.401-.838 3.142-.868 4.571-.081l.692.381c2.306 1.27 5.142 1.069 7.246-.513 1.527-1.148 3.471-1.589 5.343-1.211l.254.051c2.91.588 5.755-1.264 6.397-4.163l6.21-28.045c.98-4.425.653-9.039-.942-13.281z" fill="#ffb7b7"/><path d="m22.8971 143.609c-.4021 2.172-2.1818 3.822-4.3777 4.06l-123.0194 13.331-6.557-81.5082 6.557-4.9918 133.0421 7.7354c3.0037.1746 5.174 2.9434 4.6262 5.9019z" fill="#000"/><path d="m163.436-34.9863 67.78 20.6744-5.338 77.9078c-.18 2.6226-2.36 4.6582-4.988 4.6582h-43.672c-2.589 0-4.75-1.9767-4.98-4.5558z" fill="#ff776e"/><path d="m257.842 156.853c0-2.586 1.972-4.746 4.548-4.979l70.664-6.411v54.238c0 2.761-2.238 5-5 5h-65.212c-2.762 0-5-2.239-5-5z" fill="#fff"/><path d="m273.15 153.33c0-2.59 1.979-4.752 4.56-4.98l128.29-11.35 5.401 9.001-15.86 55.084c-.616 2.141-2.576 3.616-4.805 3.616h-112.586c-2.761 0-5-2.238-5-5z" fill="#00f"/><path d="m77.4648 231.001c0-2.761 2.2386-5 5-5h43.9132c2.762 0 5 2.239 5 5v17.63h-53.9132z" fill="#9f9f9f"/><path d="m72.8066 244.978c0-2.762 2.2386-5 5-5h53.2314c2.762 0 5 2.238 5 5v88.694l-54.7709-13.829c-.322-.081-.6351-.194-.9346-.337l-7.5259-3.602z" fill="#c4c4c4"/></g></svg>

<svg width="300" height="300" viewBox="0 0 300 300" fill="none" xmlns="http://www.w3.org/2000/svg">
<g clip-path="url(#clip0_3097_3727)">
<rect width="300" height="300" rx="6" fill="#56CCF2"/>
<path d="M214.679 107.368L225.894 5.68848L172.532 5.68847L182.831 109.648C184.178 123.242 179.329 136.718 169.632 146.339L161.867 154.042C158.742 157.141 159.739 162.417 163.779 164.162C169.092 166.458 172.532 171.691 172.532 177.478L172.532 197.585C172.532 198.693 172.917 199.767 173.621 200.623L174.012 201.098C175.571 202.992 178.189 203.638 180.451 202.686C181.976 202.044 183.738 202.366 184.936 203.508L186.315 204.821C188.307 206.717 191.319 207.054 193.679 205.643C195.08 204.806 196.821 204.775 198.25 205.562L198.942 205.943C201.248 207.213 204.084 207.012 206.188 205.43C207.715 204.282 209.659 203.841 211.531 204.219L211.815 204.276C214.721 204.863 217.569 203.04 218.253 200.155L222.372 182.791C224.667 173.113 224.003 162.914 220.503 153.603C214.974 138.89 212.956 122.992 214.679 107.368Z" fill="#FFB7B7"/>
<path d="M122.482 89.9164L20.8887 85.7745L20.8887 141.056L131.285 128.667C141.754 127.492 152.245 130.676 160.296 137.47L165.443 141.814C168.775 144.626 173.876 143.426 175.606 139.424C178.007 133.867 183.481 130.269 189.534 130.269L212.53 130.269C213.638 130.269 214.712 129.884 215.568 129.18L216.043 128.789C217.938 127.23 218.584 124.611 217.631 122.35C216.989 120.824 217.312 119.063 218.453 117.864L219.766 116.485C221.663 114.494 221.999 111.482 220.588 109.122C219.751 107.72 219.72 105.98 220.508 104.55L220.888 103.859C222.158 101.553 221.957 98.7167 220.375 96.6126C219.227 95.086 218.787 93.1416 219.165 91.2694L219.214 91.0229C219.802 88.1113 217.944 85.2671 215.042 84.635L193.98 80.0477C184.568 77.9977 174.765 78.7101 165.748 82.099L161.739 83.606C149.208 88.3159 135.858 90.4618 122.482 89.9164Z" fill="#683838"/>
<path d="M88.6793 184.223L77.4648 285.903L130.827 285.903L120.528 181.943C119.181 168.35 124.029 154.873 133.727 145.253L141.492 137.55C144.616 134.45 143.619 129.175 139.579 127.429C134.267 125.134 130.827 119.901 130.827 114.113L130.827 92.0104C130.827 90.9021 130.442 89.8281 129.737 88.9722L129.347 88.4973C127.787 86.6026 125.169 85.9566 122.908 86.9089C121.382 87.5512 119.621 87.2285 118.422 86.0871L117.043 84.7739C115.051 82.8776 112.04 82.5415 109.679 83.9521C108.278 84.7894 106.538 84.8201 105.108 84.0327L104.417 83.6521C102.111 82.3822 99.2743 82.583 97.1702 84.1651C95.6437 85.313 93.6992 85.7535 91.827 85.3757L91.5666 85.3231C88.6569 84.7359 85.8111 86.5805 85.1591 89.4763L80.7483 109.065C78.6062 118.579 79.2929 128.511 82.7238 137.64L82.8886 138.078C88.4185 152.791 90.4024 168.6 88.6793 184.223Z" fill="#FF7F80"/>
<path d="M179.026 200.676L275.813 200.041L275.813 152.116L167.914 162.544C158.297 163.474 148.665 160.929 140.762 155.372L135.377 151.586C131.861 149.114 126.961 150.497 125.257 154.442C122.754 160.234 117.048 163.985 110.738 163.985L91.4929 163.985C90.3845 163.985 89.3105 164.37 88.4547 165.074L87.9797 165.465C86.085 167.024 85.4391 169.642 86.3913 171.904C87.0336 173.43 86.711 175.191 85.5695 176.389L84.2564 177.769C82.36 179.76 82.0239 182.772 83.4345 185.132C84.2718 186.534 84.3025 188.274 83.5151 189.704L83.1345 190.395C81.8646 192.701 82.0654 195.537 83.6476 197.641C84.7954 199.168 85.2359 201.112 84.8581 202.984L84.801 203.268C84.2144 206.174 86.0375 209.022 88.9225 209.706L104.605 213.426C115.323 215.969 126.581 214.9 136.629 210.387L138.713 209.452C151.394 203.756 165.124 200.767 179.026 200.676Z" fill="#391F1F"/>
<path d="M223.45 161.443L218.036 147.038C214.44 137.47 205.288 131.133 195.066 131.133C188.592 131.133 182.38 133.691 177.784 138.251L161.867 154.041C158.742 157.141 159.739 162.416 163.779 164.162C169.092 166.457 172.532 171.691 172.532 177.478L172.532 200.246C172.532 201.355 172.917 202.429 173.621 203.285L174.012 203.76C175.571 205.654 178.189 206.3 180.451 205.348C181.976 204.706 183.738 205.028 184.936 206.17L186.315 207.483C188.307 209.379 191.319 209.715 193.679 208.305C195.08 207.467 196.821 207.437 198.25 208.224L198.942 208.605C201.248 209.875 204.084 209.674 206.188 208.092C207.715 206.944 209.659 206.503 211.531 206.881L211.785 206.932C214.695 207.52 217.54 205.668 218.182 202.769L224.392 174.724C225.372 170.299 225.045 165.685 223.45 161.443Z" fill="#FFB7B7"/>
<path d="M22.8971 143.609C22.495 145.781 20.7153 147.431 18.5194 147.669L-104.5 161L-111.057 79.4918L-104.5 74.5L28.5421 82.2354C31.5458 82.41 33.7161 85.1788 33.1683 88.1373L22.8971 143.609Z" fill="black"/>
<path d="M163.436 -34.9863L231.216 -14.3119L225.878 63.5959C225.698 66.2185 223.518 68.2541 220.89 68.2541H177.218C174.629 68.2541 172.468 66.2774 172.238 63.6983L163.436 -34.9863Z" fill="#FF776E"/>
<path d="M257.842 156.853C257.842 154.267 259.814 152.107 262.39 151.874L333.054 145.463V199.701C333.054 202.462 330.816 204.701 328.054 204.701H262.842C260.08 204.701 257.842 202.462 257.842 199.701V156.853Z" fill="white"/>
<path d="M273.15 153.33C273.15 150.74 275.129 148.578 277.71 148.35L406 137L411.401 146.001L395.541 201.085C394.925 203.226 392.965 204.701 390.736 204.701H278.15C275.389 204.701 273.15 202.463 273.15 199.701V153.33Z" fill="#0000FF"/>
<path d="M77.4648 231.001C77.4648 228.24 79.7034 226.001 82.4648 226.001H126.378C129.14 226.001 131.378 228.24 131.378 231.001V248.631H77.4648V231.001Z" fill="#9F9F9F"/>
<path d="M72.8066 244.978C72.8066 242.216 75.0452 239.978 77.8066 239.978H131.038C133.8 239.978 136.038 242.216 136.038 244.978V333.672L81.2671 319.843C80.9451 319.762 80.632 319.649 80.3325 319.506L72.8066 315.904V244.978Z" fill="#C4C4C4"/>
</g>
<defs>
<clipPath id="clip0_3097_3727">
<rect width="300" height="300" rx="6" fill="white"/>
</clipPath>
</defs>
</svg>
